src/lib/packages/icons/src/assets/filled/power-off-square.svg

<svg width="24" height="24" viewBox="0 0 24 24" fill="none" xmlns="http://www.w3.org/2000/svg">
<path d="M17.625 3H6.375C4.125 3 3 4.125 3 6.375V17.625C3 19.875 4.125 21 6.375 21H17.625C19.875 21 21 19.875 21 17.625V6.375C21 4.125 19.875 3 17.625 3ZM11.25 7C11.25 6.586 11.586 6.25 12 6.25C12.414 6.25 12.75 6.586 12.75 7V11.4441C12.75 11.8581 12.414 12.1941 12 12.1941C11.586 12.1941 11.25 11.8581 11.25 11.4441V7ZM12 17.75C9.136 17.75 6.80591 15.4199 6.80591 12.5559C6.80591 11.1719 7.34803 9.86806 8.33203 8.88306C8.62503 8.59106 9.10007 8.59006 9.39307 8.88306C9.68607 9.17506 9.68607 9.65109 9.39307 9.94409C8.69207 10.6451 8.30591 11.5729 8.30591 12.5559C8.30591 14.5929 9.963 16.25 12 16.25C14.037 16.25 15.6941 14.5929 15.6941 12.5559C15.6941 11.5729 15.3079 10.6451 14.6069 9.94409C14.3139 9.65109 14.3139 9.17606 14.6069 8.88306C14.9009 8.59006 15.376 8.59106 15.668 8.88306C16.652 9.86806 17.1941 11.1719 17.1941 12.5559C17.1941 15.4199 14.864 17.75 12 17.75Z" fill="currentColor"/>
</svg>

<svg xmlns="http://www.w3.org/2000/svg" width="24" height="24" fill="none"><path fill="currentColor" d="M17.625 3H6.375C4.125 3 3 4.125 3 6.375v11.25C3 19.875 4.125 21 6.375 21h11.25C19.875 21 21 19.875 21 17.625V6.375C21 4.125 19.875 3 17.625 3ZM11.25 7a.75.75 0 0 1 1.5 0v4.444a.75.75 0 0 1-1.5 0V7ZM12 17.75a5.2 5.2 0 0 1-5.194-5.194c0-1.384.542-2.688 1.526-3.673a.751.751 0 0 1 1.061 1.061 3.673 3.673 0 0 0-1.087 2.612A3.698 3.698 0 0 0 12 16.25a3.698 3.698 0 0 0 3.694-3.694c0-.983-.386-1.91-1.087-2.612a.75.75 0 1 1 1.061-1.06 5.165 5.165 0 0 1 1.526 3.672A5.2 5.2 0 0 1 12 17.75Z"/></svg>
